X:1
T:Her kommer, Jesus, dine små
T:(1. vers sopraner alene)
T:J.A.P Schulz / arr. Frederik Kjær Zeuthen
T:H.A. Brorson
%%score ( 1 2 ) 3
L:1/8
M:4/4
K:F
V:1 treble nm="Soprano" snm="S."
V:2 treble 
V:3 treble nm="Alto" snm="A."
V:1
 (FG) | A2 A2 B2 B2 | A3 G F2 F2 | c2 c2 d2 d2 | c3 B !breath!A2 (AG) | F2 F2 B2 B2 | %6
w: Vi *|lø- ber dig med|sang i- mod og|kys- ser stø- vet|for din fod; o *|sa- lig stund, o|
 G2 G2 !breath!c2 A2 | B2 G2 A2 F2 | D4 E4 | F6 z2 |] %10
w: kla- re nat, da|du blev født, vor|sjæ- le-|skat!|
V:2
 x2 | z2 (FE) DE FG | (FED) E D2 C2 | (FG) (AE) (FG/A/) B2 | (AG) (FG) F2 (FE) | D2 (BA) G2 G2 | %6
 E2 (cB) A2 F2 | (GF) E2 (FE) (DC) | B,4 C4 | C6 z2 |] %10
V:3
 z2 | z8 | z6 (CB,) | (A,B,) C2 B,2 (DE) | (FE) (DE) (F!breath!E) D2 | (DC) (B,F) E2 (DC) | %6
 (B,C) (DE) (F!breath!E) (DC) | B,2 (CB,) A,2 B,2 | (B,2 A,2) (G,2 CB,) | A,6 z2 |] %10

